X:1
T:Christmas '99
T:CHRISTMAS '99.
T:March and Two-Step.
T:ELMER H. SMITH.
T:U.S. Copyright 1899 by Amey &amp; Hodgins.
T:U.S. Copyright 1899 by Amey &amp; Hodgins.
T:U.S. Copyright 1899 by Amey &amp; Hodgins.
C:Elmer H Smith
Z:U.S. Copyright 1899 by Amey & Hodgins.
%%score { ( 1 3 ) | 2 }
L:1/8
Q:1/4=110
M:2/4
K:F
V:1 treble nm="Piano" snm="Pno."
V:3 treble 
V:2 bass 
V:1
!f!"^Introduction.""_PIANO." c/=Bc/ ^c=c | GA B>B | A>G FE | D z !^![A^ca] z |:!mf! a/d'a/ d'a | %5
 z/ a g/ fe | d/gd/ bb | d3 ^c | cc/c/ e/c/e/g/ | [cc'] [cc']2 [cc'] | cc/c/ f/c/f/a/ | %11
 [cc'] [cc']2 [cc'] | a/d'a/ d'a | z/ a g/ fe | d/gd/ bb | d3 ^c | cc/c/ e/c/e/g/ | %17
 [cc'] [cc']2 [cc'] |!<(! [cc']>[^c^c'] [dd'][ee']!<)! ||1 [ff'] z !^![A^ca] z :|2 %20
 [ff'][cc']/[cc']/ [cc'][cc'] |:!ff! [cc'] [Aa]2 [cc'] | [cc'] [Gg]2 [cc'] | %23
 [Bb]/[Aa]/ [Gg]2 [cc'] | [Aa] [Ff]2 [Ff] | !^![dd']2 !^![cc']2 | !^![Bb]>[dd'] [Bb][Aa] | %27
 [Gg] [dd']2 [_e_e'] | [ee']>[dd'] [cc']2 | [cc'] [Aa]2 [cc'] | [cc'] [Gg]2 [cc'] | %31
 [Bb]/[Aa]/ [Gg]2 [cc'] | [Aa] [Ff]2 [Ff] | !^![dd']2 !^![cc']2 | !^![Bb]>[dd'] [Bb][Gg] | %35
 [Aa] [Aa]2 [Gg] |1 [Ff][cc']/[cc']/ [cc'][cc'] :|2 [Ff] z !^![A^ca] z ||!mf! a/d'a/ d'a | %39
 z/ a g/ fe | d/gd/ bb | d3 ^c | cc/c/ e/c/e/g/ | [cc'] [cc']2 [cc'] | cc/c/ f/c/f/a/ | %45
 [cc'] [cc']2 [cc'] | a/d'a/ d'a | z/ a g/ fe | d/gd/ bb | d2 z ^c | cc/c/ e/c/e/g/ | %51
 [cc'] [cc']2 [cc'] |!<(! [cc']>[^c^c'] [dd'][ee'] | [ff'] z [fac'f']!<)! z || %54
[K:Bb][M:2/4]!p!"^TRIO." [F,DF] [F,DF]2 [G,DG] | [B,DB] [B,DB]2 [G,DG] | %56
 [A,EA]>[G,EG] [A,EA]>[G,EG] | [A,EA][G,EG] [F,EF]2 | [F,EF] [A,EA]2 [B,EB] | %59
 [CEc]>[=B,E=B] [CEc][CE^c] | [Dd]4- | [Dd]2 [Dd]2 | [DGd][G,G] [^F,^F][G,G] | %63
 [DGd][DGd] [EGe][DGd] | [CEc][G,G] [^F,^F][G,G] | !^![B,^CB]2 !^![A,CA]>[G,G] | %66
 [F,F][B,B] [Cc][Dd] | [Dd]2 [Cc]2 |!<(! [B,DB] z !^![FAf]2 | !^![FBf]2 !^![Fcf]2!<)! || %70
!f! [Fdf] [Fdf]2 [Gdg] | [Bdb] [Bdb]2 [Gdg] | [Aea]>[Geg] [Aea]>[Geg] | [Aea][Geg] [Fef]2 | %74
 [Fef] [Aea]2 [Beb] | [cec']>[=Be=b] [cec']>[^ce^c'] | [dd']4- | [dd']2 [dd']2 | %78
 [dgd'][Gg] [^F^f][Gg] | [dgd'][dgd'] [ege'][dgd'] | [cec'][Gg] [^F^f][Gg] | %81
 !^![B^cb]2 !^![Aca]>[Gca] | [Ff][Bb] [cc'][dd'] | [dd']2 [cc']2 | %84
!<(! [Bb][ff']/[ff']/ [ff'][ff'] | [ff'][ff'] [ff'][ff']!<)! |:!fff! [fd'f'] [dd']2 [ff'] | %87
 [fe'f'] [cc']2 [ff'] | [ee']/[dd']/ [cc']2 [ff'] | [dd'] [Bb]2 [Bb] | !^![gbg']2 !^![f=bf']2 | %91
 !^![ege']>[gg'] [ee'][dd'] | [cc'] [gg']2 [^g^g'] | [ae'a']>[ge'g'] [fe'f']2 | %94
 [fd'f'] [dd']2 [ff'] | [fe'f'] [cc']2 [ff'] | [ee']/[dd']/ [cc']2 [ff'] | [dd'] [Bb]2 [Bb] | %98
 !^![gbg']2 !^![f=bf']2 | !^![ege']>[gg'] [ee'][cc'] | [dbd'] [dbd']2 [cec'] |1 %101
 [Bdb][ff']/[ff']/ [ff'][ff'] :|2 [Bdb] z!8va(! !^![bd'f'b'] z!8va)! |] %103
V:2
 C/=B,C/ ^C=C | [G,,G,][A,,A,] [B,,B,]>[B,,B,] | [A,,A,]>[G,,G,] [F,,F,][E,,E,] | %3
 [D,,D,] z !^![A,,A,] z |: D,[A,DF] A,,[A,DF] | D,[A,DF] A,,[A,DF] | G,,[G,B,D] B,,[G,B,D] | %7
 G,,[G,B,D] B,,[G,B,^C] | C,[B,CE] E,[B,CE] | C,[B,CE] E,[B,CE] | F,[A,CF] C,[A,CF] | %11
 F,[A,CF] C,[A,CF] | D,[A,DF] A,,[A,DF] | D,[A,DF] A,,[A,DF] | G,,[G,B,D] B,,[G,B,D] | %15
 G,,[G,B,D] B,,[G,B,^C] | D,[B,CE] E,[B,CE] | C,[B,CE] E,[B,CE] | [C,C]>[B,,B,] [A,,A,][G,,G,] ||1 %19
 [F,,F,] z !^![A,,A,] z :|2 [F,,F,] z z2 |: [F,,F,][A,CF] C,[A,CF] | E,[B,CE] C,[B,CE] | %23
 E,[B,CE] C,[B,CE] | F,[A,C] C,[A,C] | !^!B,[DF] !^!B,[CF] | !^!G,[B,D] G,[B,D] | %27
 D,[G,=B,F] G,,[G,B,F] | C,[B,CE] E,[B,CE] | F,[A,CF] C,[A,CF] | E,[B,CE] C,[B,CE] | %31
 E,[B,CE] C,[B,CE] | F,[A,C] C,[A,C] | !^!B,[DF] !^!A,[CF] | !^!G,[B,D] G,[B,D] | %35
 D,[G,=B,F] C,[B,CE] |1 [F,A,C]!^![C,,C,] !^![D,,D,]!^![E,,E,] :|2 [F,A,C] z !^![A,,A,] z || %38
 D,[A,DF] A,,[A,DF] | D,[A,DF] A,,[A,DF] | G,,[G,B,D] B,,[G,B,D] | G,,[G,B,D] B,,[G,B,^C] | %42
 C,[B,CE] E,[B,CE] | C,[B,CE] E,[B,CE] | F,[A,CF] C,[A,CF] | F,[A,CF] C,[A,CF] | %46
 D,[A,DF] A,,[A,DF] | D,[A,DF] A,,[A,DF] | G,,[G,B,D] B,,[G,B,D] | G,,[G,B,D] B,,[G,B,^C] | %50
 D,[B,CE] E,[B,CE] | C,[B,CE] E,[B,CE] | [C,C]>[B,,B,] [A,,A,][G,,G,] | %53
 [F,,F,] z!8vb(! [F,,,F,,] z!8vb)! ||[K:Bb][M:2/4] [B,,,B,,] z [F,,,F,,] z | %55
 [B,,,B,,] z [F,,,F,,] z | [C,,C,] z [F,,,F,,] z | [C,,C,] z [F,,,F,,] z | [C,,C,] z [F,,,F,,] z | %59
 [C,,C,] z [F,,,F,,] z | [C,,C,] z [F,,,F,,] z | [B,,,B,,] z [_A,,,_A,,] z | %62
 [G,,,G,,] z [D,,D,] z | [G,,,G,,] z [D,,D,] z | [C,,C,] z [G,,,G,,] z | %65
 !^![=E,,,=E,,]2 !^![=E,,=E,]3/2 z/ | [B,,,B,,] z [F,,,F,,] z | [C,,C,] z [F,,,F,,] z | %68
 [B,,,B,,] z !^![F,,F,]2 | !^![G,,G,]2 !^![A,,A,]2 || [B,,B,][F,B,D] F,,[F,B,D] | %71
 B,,[F,B,D] F,,[F,B,D] | C,[F,A,E] F,,[F,A,E] | C,[F,A,E] F,,[F,A,E] | C,[F,A,E] F,,[F,A,E] | %75
 C,[F,A,E] F,,[F,A,E] | B,,[F,B,D] F,,[F,B,D] | B,,[F,B,D] _A,,[F,_A,B,D] | G,,[G,=B,F] D,[G,B,F] | %79
 G,,[G,=B,F] D,[G,B,F] | C,[CE] G,[CE] | !^![=E,,=E,]2 !^![E,=E]3/2 z/ | %82
 [B,,B,][F,B,D] F,,[F,B,D] | C,[B,C=E] F,[A,C_E] | [B,D] z z2 | %85
 z !^![F,,F,] !^![G,,G,]!^![A,,A,] |: !^![B,,B,][F,B,D] F,,[F,B,D] | C,[F,A,E] F,,[F,A,E] | %88
 C,[F,A,E] F,,[F,A,E] | B,,[F,B,D] F,,[F,B,D] | !^!E,[G,B,E] !^!D,[G,=B,DF] | %91
 !^!C,[G,CE] C,[G,CE] | =E,[B,CE] C,[B,CE] | F,[A,CE] C,[F,A,E] | B,,[F,B,D] F,,[F,B,D] | %95
 C,[F,A,E] F,,[F,A,E] | C,[F,A,E] F,,[F,A,E] | B,,[F,B,D] F,,[F,B,D] | %98
 !^!E,[G,B,E] !^!D,[G,=B,DF] | !^!C,[G,CE] C,[G,CE] | =E,[B,CE] C,[F,A,E] |1 %101
 [B,D]!^![F,,F,] !^![G,,G,]!^![A,,A,] :|2 [B,D] z !^![B,,,B,,] z |] %103
V:3
 x4 | x4 | x4 | x4 |: x4 | x4 | x4 | x4 | x4 | x4 | x4 | x4 | x4 | x4 | x4 | x4 | x4 | x4 | x4 ||1 %19
 x4 :|2 x4 |: x4 | x4 | x4 | x4 | x4 | x4 | x4 | x4 | x4 | x4 | x4 | x4 | x4 | x4 | x4 |1 x4 :|2 %37
 x4 || x4 | x4 | x4 | x4 | x4 | x4 | x4 | x4 | x4 | x4 | x4 | x4 | x4 | x4 | x4 | x4 || %54
[K:Bb][M:2/4] x4 | x4 | x4 | x4 | x4 | x4 | z [FB] z [FB] | z [FB] z [_AB] | x4 | x4 | x4 | x4 | %66
 x4 | z [GB] z [EA] | x4 | x4 || x4 | x4 | x4 | x4 | x4 | x4 | z [fb] z [fb] | z [fb] z [_ab] | %78
 x4 | x4 | x4 | x4 | x4 | z [gb] z [ea] | x4 | x4 |: x4 | x4 | x4 | x4 | x4 | x4 | x4 | x4 | x4 | %95
 x4 | x4 | x4 | x4 | x4 | x4 |1 x4 :|2 x2!8va(! x2!8va)! |] %103

